src/media/inst.svg

<svg width="55" height="54" viewBox="0 0 55 54" fill="none" xmlns="http://www.w3.org/2000/svg">
  <path d="M53.838 15.868C53.7931 13.6281 53.3687 11.412 52.583 9.314C51.9051 7.5125 50.8424 5.88056 49.469 4.532C48.1205 3.15831 46.4885 2.09527 44.687 1.417C42.5886 0.631471 40.3722 0.20746 38.132 0.163C35.253 0.031 34.333 0 27 0C19.667 0 18.747 0.031 15.868 0.162C13.6281 0.20731 11.412 0.631992 9.314 1.418C7.5125 2.09586 5.88056 3.15857 4.532 4.532C3.15826 5.8805 2.09521 7.51243 1.417 9.314C0.631619 11.4121 0.207612 13.6282 0.163 15.868C0.031 18.747 0 19.667 0 27C0 34.333 0.031 35.253 0.163 38.132C0.207855 40.3719 0.632203 42.588 1.418 44.686C2.0958 46.4875 3.15852 48.1195 4.532 49.468C5.88047 50.8415 7.51244 51.9043 9.314 52.582C11.412 53.3679 13.6281 53.7923 15.868 53.837C18.748 53.968 19.668 53.999 27 53.999C34.332 53.999 35.253 53.968 38.132 53.837C40.3719 53.7922 42.588 53.3679 44.686 52.582C46.4808 51.8887 48.1107 50.8277 49.4712 49.4672C50.8317 48.1067 51.8927 46.4768 52.586 44.682C53.3718 42.584 53.7962 40.3679 53.841 38.128C53.972 35.248 54.003 34.328 54.003 26.996C54.003 19.664 53.972 18.743 53.841 15.864L53.838 15.868ZM48.978 37.911C48.9579 39.6229 48.6436 41.3186 48.049 42.924C47.5998 44.0884 46.9119 45.1459 46.0294 46.0284C45.1469 46.9109 44.0894 47.5988 42.925 48.048C41.3196 48.6426 39.6239 48.9569 37.912 48.977C35.066 49.107 34.212 49.134 27.002 49.134C19.792 49.134 18.938 49.107 16.091 48.977C14.3791 48.9568 12.6835 48.6425 11.078 48.048C9.90687 47.6144 8.84764 46.9242 7.978 46.028C7.08168 45.1584 6.39146 44.0992 5.958 42.928C5.36338 41.3226 5.04913 39.6269 5.029 37.915C4.899 35.068 4.872 34.215 4.872 27.005C4.872 19.795 4.9 18.942 5.029 16.094C5.04933 14.3821 5.36357 12.6865 5.958 11.081C6.39167 9.90993 7.08187 8.85073 7.978 7.981C8.84749 7.08458 9.90676 6.39434 11.078 5.961C12.6833 5.36598 14.379 5.0514 16.091 5.031C18.938 4.901 19.791 4.874 27.001 4.874C34.21 4.874 35.064 4.902 37.912 5.032C39.6239 5.05217 41.3196 5.36642 42.925 5.961C44.0961 6.3947 45.1553 7.08489 46.025 7.981C46.9214 8.85049 47.6117 9.90976 48.045 11.081C48.6402 12.6863 48.9548 14.382 48.975 16.094C49.105 18.941 49.132 19.794 49.132 27.004C49.132 34.214 49.105 35.067 48.975 37.915L48.978 37.911Z" fill="url(#paint0_linear_19_281)"/>
  <path d="M26.9988 13.5C24.2566 13.5 21.5759 14.3132 19.2958 15.8367C17.0157 17.3602 15.2386 19.5256 14.1892 22.0591C13.1398 24.5926 12.8652 27.3804 13.4002 30.0699C13.9352 32.7595 15.2557 35.23 17.1948 37.169C19.1338 39.1081 21.6043 40.4286 24.2939 40.9636C26.9834 41.4986 29.7712 41.224 32.3047 40.1746C34.8382 39.1252 37.0036 37.3481 38.5271 35.068C40.0506 32.7879 40.8638 30.1072 40.8638 27.365C40.8638 23.6878 39.403 20.1612 36.8028 17.561C34.2026 14.9608 30.676 13.5 26.9988 13.5V13.5ZM26.9988 36.365C25.2188 36.365 23.4787 35.8372 21.9987 34.8482C20.5186 33.8593 19.3651 32.4537 18.6839 30.8092C18.0027 29.1646 17.8245 27.355 18.1717 25.6092C18.519 23.8634 19.3762 22.2597 20.6348 21.001C21.8935 19.7424 23.4972 18.8852 25.243 18.5379C26.9888 18.1907 28.7984 18.3689 30.4429 19.0501C32.0875 19.7313 33.4931 20.8848 34.482 22.3649C35.471 23.8449 35.9988 25.585 35.9988 27.365C35.9988 29.7519 35.0506 32.0411 33.3628 33.729C31.6749 35.4168 29.3857 36.365 26.9988 36.365V36.365Z" fill="url(#paint1_linear_19_281)"/>
  <path d="M44.6519 12C44.6519 12.6408 44.4619 13.2672 44.1058 13.8001C43.7498 14.3329 43.2438 14.7482 42.6518 14.9934C42.0597 15.2386 41.4083 15.3028 40.7798 15.1778C40.1513 15.0527 39.574 14.7442 39.1209 14.291C38.6677 13.8379 38.3591 13.2606 38.2341 12.6321C38.1091 12.0036 38.1733 11.3521 38.4185 10.7601C38.6637 10.1681 39.079 9.66206 39.6118 9.30605C40.1446 8.95003 40.7711 8.76001 41.4119 8.76001C42.2712 8.76001 43.0953 9.10137 43.7029 9.70898C44.3105 10.3166 44.6519 11.1407 44.6519 12V12Z" fill="#FF0058"/>
  <defs>
    <linearGradient id="paint0_linear_19_281" x1="4.53625" y1="49.4631" x2="49.4634" y2="4.53259" gradientUnits="userSpaceOnUse">
      <stop stop-color="#FFD600"/>
      <stop offset="0.5" stop-color="#FF0100"/>
      <stop offset="1" stop-color="#D800B9"/>
    </linearGradient>
    <linearGradient id="paint1_linear_19_281" x1="17.1824" y1="37.1814" x2="36.8152" y2="17.5486" gradientUnits="userSpaceOnUse">
      <stop stop-color="#FF6400"/>
      <stop offset="0.5" stop-color="#FF0100"/>
      <stop offset="1" stop-color="#FD0056"/>
    </linearGradient>
  </defs>
</svg>

<svg xmlns="http://www.w3.org/2000/svg" xmlns:xlink="http://www.w3.org/1999/xlink" width="114" height="114" viewBox="0 0 114 114">
  <defs>
    <linearGradient id="linear-gradient" x1="0.084" y1="0.916" x2="0.916" y2="0.084" gradientUnits="objectBoundingBox">
      <stop offset="0" stop-color="#ffd600"/>
      <stop offset="0.5" stop-color="#ff0100"/>
      <stop offset="1" stop-color="#d800b9"/>
    </linearGradient>
    <filter id="Контур_2260" x="0" y="0" width="114" height="114" filterUnits="userSpaceOnUse">
      <feOffset dy="3" input="SourceAlpha"/>
      <feGaussianBlur stdDeviation="10" result="blur"/>
      <feFlood flood-color="#e5431a" flood-opacity="0.502"/>
      <feComposite operator="in" in2="blur"/>
      <feComposite in="SourceGraphic"/>
    </filter>
    <linearGradient id="linear-gradient-2" x1="0.146" y1="0.854" x2="0.854" y2="0.146" gradientUnits="objectBoundingBox">
      <stop offset="0" stop-color="#ff6400"/>
      <stop offset="0.5" stop-color="#ff0100"/>
      <stop offset="1" stop-color="#fd0056"/>
    </linearGradient>
  </defs>
  <g id="Сгруппировать_8279" data-name="Сгруппировать 8279" transform="translate(30 27)">
    <g id="Сгруппировать_6674" data-name="Сгруппировать 6674">
      <g transform="matrix(1, 0, 0, 1, -30, -27)" filter="url(#Контур_2260)">
        <path id="Контур_2260-2" data-name="Контур 2260" d="M53.838,15.868a19.822,19.822,0,0,0-1.255-6.554,13.233,13.233,0,0,0-3.114-4.782,13.237,13.237,0,0,0-4.782-3.115A19.819,19.819,0,0,0,38.132.163C35.253.031,34.333,0,27,0S18.747.031,15.868.162A19.824,19.824,0,0,0,9.314,1.418,13.233,13.233,0,0,0,4.532,4.532,13.235,13.235,0,0,0,1.417,9.314,19.821,19.821,0,0,0,.163,15.868C.031,18.747,0,19.667,0,27s.031,8.253.163,11.132a19.817,19.817,0,0,0,1.255,6.554,13.231,13.231,0,0,0,3.114,4.782,13.229,13.229,0,0,0,4.782,3.114,19.811,19.811,0,0,0,6.554,1.255c2.88.131,3.8.162,11.132.162s8.253-.031,11.132-.162a19.814,19.814,0,0,0,6.554-1.255,13.8,13.8,0,0,0,7.9-7.9,19.816,19.816,0,0,0,1.255-6.554c.131-2.88.162-3.8.162-11.132s-.031-8.253-.162-11.132Zm-4.86,22.043a14.939,14.939,0,0,1-.929,5.013,8.941,8.941,0,0,1-5.124,5.124,14.939,14.939,0,0,1-5.013.929c-2.846.13-3.7.157-10.91.157s-8.064-.027-10.911-.157a14.944,14.944,0,0,1-5.013-.929,8.367,8.367,0,0,1-3.1-2.02,8.364,8.364,0,0,1-2.02-3.1,14.939,14.939,0,0,1-.929-5.013c-.13-2.847-.157-3.7-.157-10.91s.028-8.063.157-10.911a14.949,14.949,0,0,1,.929-5.013,8.371,8.371,0,0,1,2.02-3.1,8.36,8.36,0,0,1,3.1-2.02,14.936,14.936,0,0,1,5.013-.93c2.847-.13,3.7-.157,10.91-.157h0c7.209,0,8.063.028,10.911.158a14.941,14.941,0,0,1,5.013.929,8.372,8.372,0,0,1,3.1,2.02,8.36,8.36,0,0,1,2.02,3.1,14.925,14.925,0,0,1,.93,5.013c.13,2.847.157,3.7.157,10.91s-.027,8.063-.157,10.911Zm0,0" transform="translate(30 27)" fill="url(#linear-gradient)"/>
      </g>
      <path id="Контур_2261" data-name="Контур 2261" d="M22.621,8.757A13.865,13.865,0,1,0,36.486,22.622,13.865,13.865,0,0,0,22.621,8.757Zm0,22.865a9,9,0,1,1,9-9A9,9,0,0,1,22.621,31.622Zm0,0" transform="translate(4.378 4.743)" fill="url(#linear-gradient-2)"/>
      <path id="Контур_2262" data-name="Контур 2262" d="M31.928,9.472a3.24,3.24,0,1,1-3.24-3.24A3.24,3.24,0,0,1,31.928,9.472Zm0,0" transform="translate(12.724 2.528)" fill="#ff0058"/>
    </g>
  </g>
</svg>
